X:1     %Music
T:This Old Man
B:Singing Together, Autumn 1970, BBC Publications
F:http://www.folkinfo.org/songs
M:2/4     %Meter
L:1/16     %
K:G
d2B2 d4 |d2B2 d4 |e2d2 c2B2 |A2B2 c4 |
w:This old man, he played one, he played nick-nack on my drum. 
d2G2 GGG2 |GABc d4 |d2A2 A2c2 |B2A2 G4 |]
w:Nick-nack, pad-dy-wack, give the dog a bone, This old man came roll-ing home. 